X:45
T: Tap Room (The)
S: F. Gavin
Z: B.Black
R: reel
M: 4/4
L: 1/8
K: Edor
E2 Bc d2 Bc | dBAF DEFD |E2 Bc d2 Bc | dBAF GEED |
E2 Bc d2 Bc | dBAF DEFD |afge fdec | dBAF DEFD :|
Beef gfed | B2 AF DEFD |Beef gfed | B2 Ac BE E2 |
Beef gfed | B2 AF DEFD |afge fdec | dBAF BE E2 :|
